X:18801
T:Willie Hoffleman's Unbelievable Reel
M:4/4
L:1/8
C:Stephen P McNally
R:Reel
N:Written for a psycho boos I had in Munich
H:Written in late 1995
K:D
BEFG dEeE|GBdG AceA|BE~E2dEeE|gbag fdcA|!
BEFG dEeE|GBdB Aggf|BE~E2dEeE|gbag f4||!
Befg fdec|Befg fga2|Befg fdec|BGAF GEFG|!
Befg fdec|Befg fga2|b2ge fdc2|B2 (3BBB BAGA||!


